X: 6172
T: Captain White's
R: jig
M: 6/8
K: Dmajor
"D"DFA d2f|"A7"edc "G"Bcd|"D"A2 d "Bm"F2A|"Em"GAB"A7" E2A|
"D"DFA d2f|"A7"edc "G"Bcd|"D"A2 d "G"cde|1 "A7"ABc "D"d2F:|2 "A7"ABc "D"d2f||
"A"ece A2f|ece a2f|"E7"efe dcB|"A"cAA "(E7)"A2f|
"A"ece A2f|ece a2f|"E7" efe dcB|"A"cBA "A7"GFE||
"D"D2f fef|d2A AFG|"D"A2f "B7/D#"fef|"Em"g2 e "A7"eFG|
"D"A2f fef|d2 A A2A|"Em"Bcd "A7"ecA|"D"d3d3||

